packages/components/src/components/icon/rebranding/ic-rebranding-binary-bot.svg

<svg viewBox="0 0 345 72" fill="none" xmlns="http://www.w3.org/2000/svg"><path d="M13.4998 0C6.04407 0 0 6.04407 0 13.4998V13.892L67.3066 3.26848C64.9425 1.23151 61.8647 0 58.4992 0H13.4998Z" fill="#2A3052"/><path d="M68.6959 4.65238L56.349 71.999H58.4992C65.9549 71.999 71.999 65.9549 71.999 58.4992V13.4998C71.999 10.1153 70.7535 7.02175 68.6959 4.65238Z" fill="#2A3052"/><path fill-rule="evenodd" clip-rule="evenodd" d="M56.349 71.999L13.4998 72C6.04407 72 0 65.9559 0 58.5002V13.892L67.3066 3.26848C67.8024 3.69566 68.2668 4.15827 68.6959 4.65238L56.349 71.999Z" fill="#384177"/><path d="M24.8662 47.1825C23.6692 47.1825 22.4722 47.1405 21.2752 47.0565C20.0992 46.9935 18.8707 46.8255 17.5897 46.5525V25.3845C18.5977 25.1955 19.7002 25.059 20.8972 24.975C22.0942 24.87 23.2072 24.8175 24.2362 24.8175C25.6222 24.8175 26.8927 24.9225 28.0477 25.1325C29.2237 25.3215 30.2317 25.6575 31.0717 26.1405C31.9117 26.6235 32.5627 27.264 33.0247 28.062C33.5077 28.839 33.7492 29.805 33.7492 30.96C33.7492 32.703 32.9092 34.0785 31.2292 35.0865C32.6152 35.6115 33.5602 36.3255 34.0642 37.2285C34.5682 38.1315 34.8202 39.1501 34.8202 40.284C34.8202 42.5731 33.9802 44.2951 32.3002 45.4501C30.6412 46.605 28.1632 47.1825 24.8662 47.1825ZM22.3777 37.386V43.0245C22.7347 43.0665 23.1232 43.098 23.5432 43.119C23.9632 43.14 24.4252 43.1505 24.9292 43.1505C26.3992 43.1505 27.5857 42.9405 28.4887 42.5205C29.3917 42.1005 29.8432 41.3235 29.8432 40.1895C29.8432 39.1815 29.4652 38.4675 28.7092 38.0475C27.9532 37.6065 26.8717 37.386 25.4647 37.386H22.3777ZM22.3777 33.6375H24.7717C26.2837 33.6375 27.3652 33.4485 28.0162 33.0705C28.6672 32.6715 28.9927 32.0415 28.9927 31.1805C28.9927 30.2985 28.6567 29.679 27.9847 29.322C27.3127 28.965 26.3257 28.7865 25.0237 28.7865C24.6037 28.7865 24.1522 28.797 23.6692 28.818C23.1862 28.818 22.7557 28.839 22.3777 28.881V33.6375Z" fill="#fff"/><path d="M44.4553 47.1825C43.2583 47.1825 42.0613 47.1405 40.8643 47.0565C39.6883 46.9935 38.4598 46.8255 37.1788 46.5525V25.3845C38.1868 25.1955 39.2893 25.059 40.4863 24.975C41.6833 24.87 42.7963 24.8175 43.8253 24.8175C45.2113 24.8175 46.4818 24.9225 47.6368 25.1325C48.8128 25.3215 49.8208 25.6575 50.6608 26.1405C51.5008 26.6235 52.1518 27.264 52.6138 28.062C53.0968 28.839 53.3383 29.805 53.3383 30.96C53.3383 32.703 52.4983 34.0785 50.8183 35.0865C52.2043 35.6115 53.1493 36.3255 53.6533 37.2285C54.1573 38.1315 54.4093 39.1501 54.4093 40.284C54.4093 42.5731 53.5693 44.2951 51.8893 45.4501C50.2303 46.605 47.7523 47.1825 44.4553 47.1825ZM41.9668 37.386V43.0245C42.3238 43.0665 42.7123 43.098 43.1323 43.119C43.5523 43.14 44.0143 43.1505 44.5183 43.1505C45.9883 43.1505 47.1748 42.9405 48.0778 42.5205C48.9808 42.1005 49.4323 41.3235 49.4323 40.1895C49.4323 39.1815 49.0543 38.4675 48.2983 38.0475C47.5423 37.6065 46.4608 37.386 45.0538 37.386H41.9668ZM41.9668 33.6375H44.3608C45.8728 33.6375 46.9543 33.4485 47.6053 33.0705C48.2563 32.6715 48.5818 32.0415 48.5818 31.1805C48.5818 30.2985 48.2458 29.679 47.5738 29.322C46.9018 28.965 45.9148 28.7865 44.6128 28.7865C44.1928 28.7865 43.7413 28.797 43.2583 28.818C42.7753 28.818 42.3448 28.839 41.9668 28.881V33.6375Z" fill="#fff"/><path d="M99.1973 50.1514C97.3073 50.1514 95.37 50.0726 93.3855 49.9151C91.401 49.7576 89.6055 49.5056 87.999 49.1591L95.559 17.5016C97.3545 17.1551 99.2288 16.9188 101.182 16.7928C103.166 16.6668 104.978 16.6038 106.616 16.6038C108.506 16.6038 110.128 16.8086 111.482 17.2181C112.868 17.5961 113.987 18.1158 114.837 18.7773C115.719 19.4388 116.365 20.2263 116.774 21.1399C117.215 22.0219 117.436 22.9669 117.436 23.9749C117.436 24.6679 117.357 25.3924 117.2 26.1484C117.074 26.9044 116.79 27.6604 116.349 28.4164C115.94 29.1409 115.357 29.8339 114.601 30.4954C113.876 31.1569 112.916 31.7554 111.719 32.2909C113.136 32.9209 114.176 33.7871 114.837 34.8896C115.499 35.9606 115.829 37.1576 115.829 38.4806C115.829 39.9926 115.53 41.4574 114.932 42.8749C114.333 44.2609 113.372 45.5051 112.049 46.6076C110.726 47.6786 109.01 48.5449 106.899 49.2064C104.789 49.8364 102.221 50.1514 99.1973 50.1514ZM98.5358 35.4094L96.504 43.9144C97.008 44.0089 97.638 44.0876 98.394 44.1506C99.1815 44.1821 99.906 44.1979 100.568 44.1979C101.513 44.1979 102.442 44.1349 103.355 44.0089C104.3 43.8514 105.135 43.5836 105.86 43.2056C106.616 42.8276 107.23 42.3079 107.702 41.6464C108.175 40.9849 108.411 40.1344 108.411 39.0949C108.411 38.6539 108.317 38.2129 108.128 37.7719C107.97 37.3309 107.702 36.9371 107.324 36.5906C106.946 36.2441 106.442 35.9606 105.812 35.7401C105.214 35.5196 104.489 35.4094 103.639 35.4094H98.5358ZM99.906 29.8811H104.537C106.427 29.8811 107.828 29.4716 108.742 28.6526C109.687 27.8336 110.159 26.8571 110.159 25.7231C110.159 25.1246 110.018 24.6206 109.734 24.2111C109.482 23.7701 109.136 23.4236 108.695 23.1716C108.254 22.9196 107.75 22.7464 107.183 22.6519C106.616 22.5259 106.033 22.4629 105.434 22.4629C104.773 22.4629 104.064 22.4944 103.308 22.5574C102.552 22.5889 101.985 22.6361 101.607 22.6991L99.906 29.8811Z" fill="currentColor"/><path d="M123.493 49.7261H116.5L122.407 24.8726H129.447L123.493 49.7261ZM126.895 21.8486C125.919 21.8486 125.037 21.5651 124.249 20.9981C123.462 20.3996 123.068 19.5018 123.068 18.3048C123.068 17.6433 123.194 17.0291 123.446 16.4621C123.73 15.8636 124.092 15.3596 124.533 14.9501C124.974 14.5091 125.478 14.1626 126.045 13.9106C126.643 13.6586 127.273 13.5326 127.935 13.5326C128.911 13.5326 129.793 13.8318 130.581 14.4303C131.368 14.9973 131.762 15.8793 131.762 17.0763C131.762 17.7378 131.62 18.3678 131.337 18.9663C131.085 19.5333 130.738 20.0373 130.297 20.4783C129.856 20.8879 129.337 21.2186 128.738 21.4706C128.171 21.7226 127.557 21.8486 126.895 21.8486Z" fill="currentColor"/><path d="M133.237 26.0066C133.772 25.8491 134.355 25.6759 134.985 25.4869C135.646 25.2664 136.371 25.0774 137.158 24.9199C137.977 24.7309 138.875 24.5891 139.852 24.4946C140.86 24.3686 141.994 24.3056 143.254 24.3056C146.971 24.3056 149.522 25.3766 150.908 27.5186C152.294 29.6606 152.53 32.5901 151.617 36.3071L148.404 49.7261H141.364L144.482 36.5906C144.671 35.7716 144.813 34.9841 144.907 34.2281C145.033 33.4406 145.033 32.7634 144.907 32.1964C144.781 31.5979 144.482 31.1254 144.01 30.7789C143.569 30.4009 142.876 30.2119 141.931 30.2119C141.017 30.2119 140.088 30.3064 139.143 30.4954L134.56 49.7261H127.519L133.237 26.0066Z" fill="currentColor"/><path d="M175.26 39.0004C174.819 40.7959 174.693 42.6071 174.882 44.4341C175.071 46.2296 175.433 47.8361 175.969 49.2536L169.684 50.1514C169.495 49.7734 169.322 49.4111 169.165 49.0646C169.007 48.7181 168.85 48.3244 168.692 47.8834C167.81 48.6079 166.834 49.2064 165.763 49.6789C164.692 50.1514 163.495 50.3876 162.172 50.3876C160.597 50.3876 159.242 50.1199 158.108 49.5844C157.006 49.0174 156.092 48.2771 155.368 47.3636C154.675 46.4186 154.171 45.3319 153.856 44.1034C153.541 42.8434 153.383 41.5046 153.383 40.0871C153.383 37.9136 153.761 35.8661 154.517 33.9446C155.305 32.0231 156.376 30.3536 157.73 28.9361C159.116 27.4871 160.738 26.3531 162.597 25.5341C164.455 24.7151 166.471 24.3056 168.645 24.3056C168.928 24.3056 169.417 24.3214 170.11 24.3529C170.834 24.3844 171.653 24.4631 172.567 24.5891C173.48 24.6836 174.441 24.8569 175.449 25.1089C176.457 25.3609 177.418 25.7074 178.331 26.1484L175.26 39.0004ZM170.346 30.3064C169.936 30.2434 169.558 30.1961 169.212 30.1646C168.897 30.1331 168.503 30.1174 168.031 30.1174C166.96 30.1174 165.952 30.3851 165.007 30.9206C164.093 31.4561 163.29 32.1649 162.597 33.0469C161.904 33.8974 161.353 34.8896 160.943 36.0236C160.565 37.1576 160.376 38.3389 160.376 39.5674C160.376 41.0794 160.628 42.2764 161.132 43.1584C161.636 44.0404 162.565 44.4814 163.92 44.4814C164.644 44.4814 165.29 44.3396 165.857 44.0561C166.456 43.7726 167.086 43.3001 167.747 42.6386C167.81 41.8511 167.905 41.0321 168.031 40.1816C168.188 39.2996 168.346 38.4964 168.503 37.7719L170.346 30.3064Z" fill="currentColor"/><path d="M196.375 30.9206C195.745 30.7631 195.115 30.6214 194.485 30.4954C193.887 30.3379 192.989 30.2591 191.792 30.2591C191.351 30.2591 190.863 30.3064 190.327 30.4009C189.792 30.4639 189.351 30.5426 189.004 30.6371L184.421 49.7261H177.381L183.051 26.1956C184.405 25.7546 185.917 25.3451 187.587 24.9671C189.288 24.5576 191.194 24.3529 193.304 24.3529C194.092 24.3529 194.958 24.4316 195.903 24.5891C196.879 24.7151 197.73 24.9356 198.454 25.2506L196.375 30.9206Z" fill="currentColor"/><path d="M221.691 24.8726C220.809 27.2666 219.911 29.5031 218.998 31.5821C218.116 33.6611 217.187 35.6456 216.21 37.5356C215.234 39.3941 214.226 41.1739 213.186 42.8749C212.147 44.5759 211.044 46.2611 209.879 47.9306C209.028 49.1591 208.146 50.4034 207.233 51.6634C206.319 52.9234 205.295 54.0574 204.161 55.0654C203.059 56.0734 201.815 56.8924 200.429 57.5224C199.074 58.1524 197.499 58.4674 195.704 58.4674C194.601 58.4674 193.656 58.3571 192.869 58.1366C192.081 57.9476 191.341 57.6799 190.648 57.3334L192.774 51.8051C193.404 52.0571 193.971 52.2461 194.475 52.3721C194.979 52.5296 195.593 52.6084 196.318 52.6084C197.42 52.6084 198.46 52.2461 199.436 51.5216C200.444 50.8286 201.279 49.8836 201.941 48.6866C201.122 45.5366 200.366 42.0086 199.673 38.1026C199.011 34.1966 198.554 29.7866 198.302 24.8726H205.532C205.563 26.1011 205.626 27.4556 205.721 28.9361C205.815 30.4166 205.925 31.9129 206.051 33.4249C206.177 34.9054 206.319 36.3544 206.477 37.7719C206.634 39.1894 206.807 40.4651 206.996 41.5991C208.508 39.3311 209.831 36.8111 210.965 34.0391C212.131 31.2671 213.218 28.2116 214.226 24.8726H221.691Z" fill="currentColor"/><path d="M238.298 50.1514C236.502 50.1514 234.707 50.0884 232.911 49.9624C231.147 49.8679 229.304 49.6159 227.383 49.2064V17.4543C228.895 17.1708 230.549 16.9661 232.344 16.8401C234.14 16.6826 235.809 16.6038 237.353 16.6038C239.432 16.6038 241.337 16.7613 243.07 17.0763C244.834 17.3598 246.346 17.8638 247.606 18.5883C248.866 19.3128 249.842 20.2736 250.535 21.4706C251.26 22.6361 251.622 24.0851 251.622 25.8176C251.622 28.4321 250.362 30.4954 247.842 32.0074C249.921 32.7949 251.339 33.8659 252.095 35.2204C252.851 36.5749 253.229 38.1026 253.229 39.8036C253.229 43.2371 251.969 45.8201 249.449 47.5526C246.96 49.2851 243.243 50.1514 238.298 50.1514ZM234.565 35.4566V43.9144C235.1 43.9774 235.683 44.0246 236.313 44.0561C236.943 44.0876 237.636 44.1034 238.392 44.1034C240.597 44.1034 242.377 43.7884 243.731 43.1584C245.086 42.5284 245.763 41.3629 245.763 39.6619C245.763 38.1499 245.196 37.0789 244.062 36.4489C242.928 35.7874 241.306 35.4566 239.195 35.4566H234.565ZM234.565 29.8339H238.156C240.424 29.8339 242.046 29.5504 243.023 28.9834C243.999 28.3849 244.487 27.4399 244.487 26.1484C244.487 24.8254 243.983 23.8961 242.975 23.3606C241.967 22.8251 240.487 22.5574 238.534 22.5574C237.904 22.5574 237.227 22.5731 236.502 22.6046C235.778 22.6046 235.132 22.6361 234.565 22.6991V29.8339Z" fill="currentColor"/><path d="M279.541 37.2521C279.541 39.2051 279.258 41.0006 278.691 42.6386C278.124 44.2451 277.305 45.6311 276.234 46.7966C275.163 47.9306 273.871 48.8126 272.359 49.4426C270.879 50.0726 269.209 50.3876 267.351 50.3876C265.524 50.3876 263.854 50.0726 262.342 49.4426C260.862 48.8126 259.586 47.9306 258.515 46.7966C257.444 45.6311 256.609 44.2451 256.011 42.6386C255.412 41.0006 255.113 39.2051 255.113 37.2521C255.113 35.2991 255.412 33.5194 256.011 31.9129C256.641 30.3064 257.491 28.9361 258.562 27.8021C259.665 26.6681 260.956 25.7861 262.437 25.1561C263.949 24.5261 265.587 24.2111 267.351 24.2111C269.146 24.2111 270.784 24.5261 272.265 25.1561C273.777 25.7861 275.068 26.6681 276.139 27.8021C277.21 28.9361 278.045 30.3064 278.643 31.9129C279.242 33.5194 279.541 35.2991 279.541 37.2521ZM272.359 37.2521C272.359 35.0786 271.918 33.3776 271.036 32.1491C270.186 30.8891 268.957 30.2591 267.351 30.2591C265.744 30.2591 264.5 30.8891 263.618 32.1491C262.736 33.3776 262.295 35.0786 262.295 37.2521C262.295 39.4256 262.736 41.1581 263.618 42.4496C264.5 43.7096 265.744 44.3396 267.351 44.3396C268.957 44.3396 270.186 43.7096 271.036 42.4496C271.918 41.1581 272.359 39.4256 272.359 37.2521Z" fill="currentColor"/><path d="M282.396 18.6828L289.436 17.5488V24.8726H297.894V30.7316H289.436V39.4729C289.436 40.9534 289.688 42.1346 290.192 43.0166C290.728 43.8986 291.783 44.3396 293.358 44.3396C294.114 44.3396 294.886 44.2766 295.673 44.1506C296.492 43.9931 297.233 43.7884 297.894 43.5364L298.886 49.0174C298.036 49.3639 297.091 49.6631 296.051 49.9151C295.012 50.1671 293.736 50.2931 292.224 50.2931C290.303 50.2931 288.712 50.0411 287.452 49.5371C286.192 49.0016 285.184 48.2771 284.428 47.3636C283.672 46.4186 283.136 45.2846 282.821 43.9616C282.538 42.6386 282.396 41.1739 282.396 39.5674V18.6828Z" fill="currentColor"/></svg>

<svg xmlns="http://www.w3.org/2000/svg" fill="none" viewBox="0 0 345 72"><path fill="#2A3052" d="M13.5 0C6.044 0 0 6.044 0 13.5v.392L67.307 3.268A13.447 13.447 0 0 0 58.499 0h-45ZM68.696 4.652 56.349 72h2.15c7.456 0 13.5-6.044 13.5-13.5v-45c0-3.384-1.245-6.477-3.303-8.847Z"/><path fill="#384177" fill-rule="evenodd" d="M56.349 71.999 13.499 72C6.045 72 0 65.956 0 58.5V13.892L67.307 3.268c.495.428.96.89 1.389 1.384L56.349 72Z" clip-rule="evenodd"/><path fill="#fff" d="M24.866 47.182c-1.197 0-2.394-.041-3.59-.126a23.814 23.814 0 0 1-3.686-.503V25.385a29.034 29.034 0 0 1 3.307-.41 38.371 38.371 0 0 1 3.34-.158c1.385 0 2.656.105 3.81.316 1.177.189 2.185.524 3.025 1.008a5.201 5.201 0 0 1 1.953 1.921c.483.777.724 1.743.724 2.898 0 1.743-.84 3.118-2.52 4.127 1.386.524 2.331 1.238 2.835 2.141.504.904.756 1.922.756 3.056 0 2.29-.84 4.011-2.52 5.166-1.659 1.155-4.137 1.732-7.434 1.732Zm-2.488-9.796v5.639c.357.041.745.073 1.165.094.42.021.882.032 1.386.032 1.47 0 2.657-.21 3.56-.63.903-.42 1.354-1.197 1.354-2.331 0-1.008-.378-1.722-1.134-2.142-.756-.442-1.837-.662-3.244-.662h-3.087Zm0-3.748h2.394c1.512 0 2.593-.19 3.244-.567.651-.4.977-1.03.977-1.89 0-.883-.336-1.502-1.008-1.859-.672-.357-1.66-.535-2.961-.535-.42 0-.872.01-1.355.031-.483 0-.913.021-1.291.063v4.757ZM44.455 47.182c-1.197 0-2.394-.041-3.59-.126a23.814 23.814 0 0 1-3.686-.503V25.385a29.034 29.034 0 0 1 3.307-.41 38.371 38.371 0 0 1 3.34-.158c1.385 0 2.656.105 3.81.316 1.177.189 2.185.524 3.025 1.008a5.201 5.201 0 0 1 1.953 1.921c.483.777.724 1.743.724 2.898 0 1.743-.84 3.118-2.52 4.127 1.386.524 2.331 1.238 2.835 2.141.504.904.756 1.922.756 3.056 0 2.29-.84 4.011-2.52 5.166-1.659 1.155-4.137 1.732-7.434 1.732Zm-2.488-9.796v5.639c.357.041.745.073 1.165.094.42.021.882.032 1.386.032 1.47 0 2.657-.21 3.56-.63.903-.42 1.354-1.197 1.354-2.331 0-1.008-.378-1.722-1.134-2.142-.756-.442-1.837-.662-3.244-.662h-3.087Zm0-3.748h2.394c1.512 0 2.593-.19 3.244-.567.651-.4.977-1.03.977-1.89 0-.883-.336-1.502-1.008-1.859-.672-.357-1.66-.535-2.961-.535-.42 0-.872.01-1.355.031-.483 0-.913.021-1.291.063v4.757Z"/><path fill="var(--text-general)" d="M99.197 50.151c-1.89 0-3.827-.078-5.812-.236-1.984-.157-3.78-.41-5.386-.756l7.56-31.657a44.926 44.926 0 0 1 5.623-.71 86.343 86.343 0 0 1 5.434-.188c1.89 0 3.512.205 4.866.614 1.386.378 2.505.898 3.355 1.56.882.66 1.528 1.448 1.937 2.362.441.882.662 1.827.662 2.835 0 .693-.079 1.417-.236 2.173-.126.756-.41 1.512-.851 2.268-.409.725-.992 1.418-1.748 2.08-.725.66-1.685 1.26-2.882 1.795 1.417.63 2.457 1.496 3.118 2.599.662 1.07.992 2.268.992 3.59 0 1.513-.299 2.977-.897 4.395-.599 1.386-1.56 2.63-2.883 3.733-1.323 1.07-3.039 1.937-5.15 2.598-2.11.63-4.678.945-7.702.945Zm-.661-14.742-2.032 8.505c.504.095 1.134.174 1.89.237a54.7 54.7 0 0 0 2.174.047c.945 0 1.874-.063 2.787-.19.945-.157 1.78-.424 2.505-.802a4.93 4.93 0 0 0 1.842-1.56c.473-.661.709-1.512.709-2.551 0-.441-.094-.882-.283-1.323a2.938 2.938 0 0 0-.804-1.181c-.378-.347-.882-.63-1.512-.85-.598-.221-1.323-.332-2.173-.332h-5.103Zm1.37-5.528h4.631c1.89 0 3.291-.41 4.205-1.228.945-.82 1.417-1.796 1.417-2.93 0-.598-.141-1.102-.425-1.512a2.744 2.744 0 0 0-1.039-1.04 4.518 4.518 0 0 0-1.512-.52 8.038 8.038 0 0 0-1.749-.188c-.661 0-1.37.031-2.126.094-.756.032-1.323.08-1.701.142l-1.701 7.182ZM123.493 49.726H116.5l5.907-24.853h7.04l-5.954 24.853Zm3.402-27.877a4.423 4.423 0 0 1-2.646-.85c-.787-.6-1.181-1.497-1.181-2.694 0-.662.126-1.276.378-1.843a4.902 4.902 0 0 1 1.087-1.512 4.984 4.984 0 0 1 1.512-1.04 4.818 4.818 0 0 1 1.89-.377c.976 0 1.858.299 2.646.897.787.567 1.181 1.45 1.181 2.646 0 .662-.142 1.292-.425 1.89a4.985 4.985 0 0 1-1.04 1.512c-.441.41-.96.74-1.559.993a4.485 4.485 0 0 1-1.843.378ZM133.237 26.007c.535-.158 1.118-.331 1.748-.52.661-.22 1.386-.41 2.173-.567.819-.19 1.717-.33 2.694-.425a27.63 27.63 0 0 1 3.402-.19c3.717 0 6.268 1.072 7.654 3.214 1.386 2.142 1.622 5.071.709 8.788l-3.213 13.42h-7.04l3.118-13.136c.189-.82.331-1.607.425-2.363.126-.787.126-1.465 0-2.032-.126-.598-.425-1.07-.897-1.417-.441-.378-1.134-.567-2.079-.567-.914 0-1.843.094-2.788.283l-4.583 19.231h-7.041l5.718-23.72ZM175.26 39a15.799 15.799 0 0 0-.378 5.434c.189 1.796.551 3.402 1.087 4.82l-6.285.897c-.189-.378-.362-.74-.519-1.086-.158-.347-.315-.74-.473-1.182a12.603 12.603 0 0 1-2.929 1.796c-1.071.472-2.268.709-3.591.709-1.575 0-2.93-.268-4.064-.804-1.102-.567-2.016-1.307-2.74-2.22-.693-.945-1.197-2.032-1.512-3.26a16.51 16.51 0 0 1-.473-4.017c0-2.173.378-4.22 1.134-6.142.788-1.922 1.859-3.591 3.213-5.009a15.076 15.076 0 0 1 4.867-3.402c1.858-.819 3.874-1.228 6.048-1.228.283 0 .772.015 1.465.047.724.031 1.543.11 2.457.236a20.7 20.7 0 0 1 2.882.52c1.008.252 1.969.598 2.882 1.04L175.26 39Zm-4.914-8.694a18.64 18.64 0 0 0-1.134-.141 12.224 12.224 0 0 0-1.181-.048 6.037 6.037 0 0 0-3.024.804 8.554 8.554 0 0 0-2.41 2.126c-.693.85-1.244 1.843-1.654 2.977a11.132 11.132 0 0 0-.567 3.543c0 1.512.252 2.71.756 3.591.504.882 1.433 1.323 2.788 1.323.724 0 1.37-.141 1.937-.425.599-.283 1.229-.756 1.89-1.417.063-.788.158-1.607.284-2.457.157-.882.315-1.686.472-2.41l1.843-7.466ZM196.375 30.92c-.63-.157-1.26-.299-1.89-.425-.598-.157-1.496-.236-2.693-.236-.441 0-.929.047-1.465.142a9.317 9.317 0 0 0-1.323.236l-4.583 19.09h-7.04l5.67-23.531a51.248 51.248 0 0 1 4.536-1.229c1.701-.41 3.607-.614 5.717-.614.788 0 1.654.079 2.599.236.976.126 1.827.347 2.551.662l-2.079 5.67Z"/><path fill="var(--text-general)" d="M221.691 24.873a119.18 119.18 0 0 1-2.693 6.71 86.695 86.695 0 0 1-2.788 5.953 94.16 94.16 0 0 1-3.024 5.339 99.177 99.177 0 0 1-3.307 5.056 215.6 215.6 0 0 1-2.646 3.732 21.146 21.146 0 0 1-3.072 3.402 14.19 14.19 0 0 1-3.732 2.457c-1.355.63-2.93.945-4.725.945-1.103 0-2.048-.11-2.835-.33a10.338 10.338 0 0 1-2.221-.804l2.126-5.528c.63.252 1.197.441 1.701.567.504.158 1.118.236 1.843.236 1.102 0 2.142-.362 3.118-1.086 1.008-.693 1.843-1.638 2.505-2.835-.819-3.15-1.575-6.678-2.268-10.584-.662-3.906-1.119-8.316-1.371-13.23h7.23a105.4 105.4 0 0 0 .189 4.063c.094 1.48.204 2.977.33 4.489.126 1.48.268 2.93.426 4.347.157 1.417.33 2.693.519 3.827 1.512-2.268 2.835-4.788 3.969-7.56 1.166-2.772 2.253-5.827 3.261-9.166h7.465ZM238.298 50.151c-1.796 0-3.591-.063-5.387-.189a35.71 35.71 0 0 1-5.528-.756V17.454a43.561 43.561 0 0 1 4.961-.614 57.569 57.569 0 0 1 5.009-.236c2.079 0 3.984.157 5.717.472 1.764.284 3.276.788 4.536 1.512 1.26.725 2.236 1.686 2.929 2.883.725 1.165 1.087 2.614 1.087 4.347 0 2.614-1.26 4.677-3.78 6.19 2.079.787 3.497 1.858 4.253 3.212.756 1.355 1.134 2.883 1.134 4.584 0 3.433-1.26 6.016-3.78 7.749-2.489 1.732-6.206 2.598-11.151 2.598Zm-3.733-14.694v8.457c.535.063 1.118.11 1.748.142.63.032 1.323.047 2.079.047 2.205 0 3.985-.315 5.339-.945 1.355-.63 2.032-1.795 2.032-3.496 0-1.512-.567-2.583-1.701-3.213-1.134-.662-2.756-.992-4.867-.992h-4.63Zm0-5.623h3.591c2.268 0 3.89-.284 4.867-.85.976-.6 1.464-1.544 1.464-2.836 0-1.323-.504-2.252-1.512-2.787-1.008-.536-2.488-.804-4.441-.804-.63 0-1.307.016-2.032.048-.724 0-1.37.031-1.937.094v7.135ZM279.541 37.252c0 1.953-.283 3.749-.85 5.387-.567 1.606-1.386 2.992-2.457 4.158-1.071 1.134-2.363 2.016-3.875 2.646-1.48.63-3.15.945-5.008.945-1.827 0-3.497-.315-5.009-.945a11.27 11.27 0 0 1-3.827-2.646c-1.071-1.166-1.906-2.552-2.504-4.158-.599-1.638-.898-3.434-.898-5.387 0-1.953.299-3.733.898-5.34.63-1.606 1.48-2.976 2.551-4.11a11.778 11.778 0 0 1 3.875-2.646c1.512-.63 3.15-.945 4.914-.945 1.795 0 3.433.315 4.914.945 1.512.63 2.803 1.512 3.874 2.646 1.071 1.134 1.906 2.504 2.504 4.11.599 1.607.898 3.387.898 5.34Zm-7.182 0c0-2.173-.441-3.874-1.323-5.103-.85-1.26-2.079-1.89-3.685-1.89-1.607 0-2.851.63-3.733 1.89-.882 1.229-1.323 2.93-1.323 5.103 0 2.174.441 3.906 1.323 5.198.882 1.26 2.126 1.89 3.733 1.89 1.606 0 2.835-.63 3.685-1.89.882-1.292 1.323-3.024 1.323-5.198ZM282.396 18.683l7.04-1.134v7.324h8.458v5.859h-8.458v8.74c0 1.481.252 2.663.756 3.545.536.882 1.591 1.323 3.166 1.323.756 0 1.528-.063 2.315-.19.819-.157 1.56-.362 2.221-.614l.992 5.481a19.99 19.99 0 0 1-2.835.898c-1.039.252-2.315.378-3.827.378-1.921 0-3.512-.252-4.772-.756-1.26-.535-2.268-1.26-3.024-2.173-.756-.945-1.292-2.08-1.607-3.402-.283-1.323-.425-2.788-.425-4.395V18.683Z"/></svg>
